X: 1
T: Fanny Power
C: Turlough O'Carolan
R: waltz
S: printed page in Concord Slow Scottish Session collection
N: The composer's name is given as "O'Carola"
Z: 2015 John Chambers <jc:trillian.mit.edu>
M: 6/8
L: 1/8
K: G
G |\
"G"G2D G2A/B/ | "Am"c2B A2G | "D7"{G}F2E D2{E}D | F2G A2c |
"G"B2A/G/ Bcd | "C"e2A "Am"A2G | "D7"F>ED DEF | "G"G3 G2 :|
|: G |\
"G"dB/c/d dB/c/d | G2G G2G/G/ | "C"ec/d/e ec/d/e | "Am"A2A A2d/c/ |
"G"B>cd "C"e>fg | "D"f>ga d2c | "G"B>AG "D7"A<cF | "G"G3 G2 :|
